X: 1
T: String Quartet in B\b Major opus 64 no 3 mvt 1
C: Franz Joseph Haydn
%%abc-version 2.0
%%abcx-abcm2ps-target-version 5.9.1 (29 Sep 2008)
%%abc-creator hum2abc beta
%%abcx-conversion-date 2021/02/14 14:38:35
%%abc-copyright Copyright (c) 1994, 2000 Center for Computer Assisted Research in the Humanities
%%abc-edited-by Frances Bennion
%%abcx-initial-encoding-date 1997/04/15
%%gracespace 0 6 6
%%humdrum-veritas 1468226530
%%humdrum-veritas-data 2120959410
%%linebreak <none>
%%barnumbers 0
L: 1/16
M: 3/4
N: Derived from op64n3-01.krn
Q: "Vivaci assai"
%%staves [1 2 3 4]
V: 1
V: 2
V: 3 clef=alto
V: 4 clef=bass
K: Bb
[V:1]z4 >d4 e2d2 [I:setbarnb1]|
[V:2]z4 >B4 c2B2 |
[V:3]z4 >F4 F2F2 |
[V:4]z4 >B,4 A,2B,2 |
[V:1]d2c2 B2f2 =e2f2 |
[V:2]A4 B2d2 ^c2d2 |
[V:3]F4 >F4 =E2F2 |
[V:4]E4 D2z6 |
[V:1]c=Bcd c2d2 e2f2 |
[V:2]A4 z2B2 B2B2 |
[V:3]C=B,CD C2F2 E2D2 |
[V:4]F,4 z2B,2 G,2D,2 |
[V:1]^f2g2 =f2d'2 a2b2 |
[V:2]B4 >d4 A2B2 |
[V:3]E4 D2z6 |
[V:4]E,4 D,2z6 |
[V:1]^f2g2 c2e2 dcBA |
[V:2]^F2G2 C2G2 =FEDC |
[V:3]z4 >E,4 F,2F,2 |
[V:4]E,4 >C,4 F,2F,,2 |
[V:1]B2F2 D2d2 e2d2 |
[V:2]D4 z2B2 c2B2 |
[V:3]F,4 z2F2 F2F2 |
[V:4]B,,4 z2B,2 A,2B,2 |
[V:1]d2c2 B2d'2 c'bag |
[V:2]A4 B2z6 |
[V:3]F4 z8 |
[V:4]E4 D2z6 |
[V:1]f2e2 d2z6 |
[V:2]A2c2 B2z6 |
[V:3]F2A2 B2z6 |
[V:4]z12 |
[V:1]z12 |
[V:2]z12 |
[V:3]z12 |
[V:4]B,,2B,,A,, B,,2B,,A,, B,,2B,,A,, |
[V:1]z12 |
[V:2]D2DB, D2DB, D2DB, |
[V:3]B,2B,F, B,2B,F, B,2B,F, |
[V:4]B,,2z2 B,,2z2 B,,2z2 |
[V:1]f2f=e f2fe f2fe |
[V:2]D2DB, D2DB, D2DB, |
[V:3]B,2B,F, B,2B,F, B,2B,F, |
[V:4]B,,2z2 B,,2z2 B,,2z2 |
[V:1]f=efg fefg f_edc |
[V:2]E2EC E2EC E2EC |
[V:3]C2CF, C2CF, C2CF, |
[V:4]A,,2z2 A,,2z2 A,,2z2 |
[V:1]B2BA B2BA B2Bd |
[V:2]D2DB, D2DB, D2DB, |
[V:3]B,2B,F, B,2B,F, B,2B,F, |
[V:4]B,,2z2 B,,2z2 B,,2z2 |
[V:1]c2c4 <c4 de |
[V:2]C2CA, C2CA, C2CA, |
[V:3]A,2A,F, A,2A,F, A,2A,F, |
[V:4]F,,2z2 F,2z2 F,2z2 |
[V:1]f2f=e f2fe f2fe |
[V:2]D2DB, D2DB, D2DB, |
[V:3]B,2B,F, B,2B,F, B,2B,F, |
[V:4]B,,2z2 B,,2z2 B,,2z2 |
[V:1]f=efg fefg f_edc |
[V:2]E2EC E2EC E2EC |
[V:3]C2CF, C2CF, C2CF, |
[V:4]A,,2z2 A,,2z2 A,,2z2 |
[V:1]B2BA BcdB cdec |
[V:2]D2DB, D2DB, E2EC |
[V:3]B,2B,F, B,2B,F, C2CA, |
[V:4]B,,2z2 B,,2z2 F,,2z2 |
[V:1]B4 z2d2 e2d2 |
[V:2]D4 z2B2 B2B2 |
[V:3]B,4 z2F2 G2F2 |
[V:4]B,,2B,,A,, B,,2z6 |
[V:1]d2c2 B2f2 =e2f2 |
[V:2]A4 B2d2 ^c2d2 |
[V:3]E4 D2F2 =E2F2 |
[V:4]z4 >B,,4 B,,2B,,2 |
[V:1]^f4 g2b2 c'2b2 |
[V:2]c4 B2g2 a2g2 |
[V:3]E2C2 D2D2 D2D2 |
[V:4]A,,4 G,,2G,,2 ^F,,2G,,2 |
[V:1]b2a2 g2g2 b2d'2 |
[V:2]^f4 g2z6 |
[V:3]E4 D2z6 |
[V:4]C,4 B,,2z6 |
[V:1]d'2c'2 z2a2 b2a2 |
[V:2]B4 z2f2 g2f2 |
[V:3]G4 z2C2 C2C2 |
[V:4]=E4 z2F,,2 =E,,2F,,2 |
[V:1]a2g2 f2f2 a2c'2 |
[V:2]=e4 f2z6 |
[V:3]C6 z6 |
[V:4]B,,4 A,,2z6 |
[V:1]c'4 b2a2 b2a2 |
[V:2]f4 >=e4 f2e2 |
[V:3]d4 >c4 d2c2 |
[V:4]z12 |
[V:1]a2g2 f2f2 g2f2 |
[V:2]d4 c2c2 d2c2 |
[V:3]B4 A2A2 B2A2 |
[V:4]z12 |
[V:1]f2=e2 d2c2 d2c2 |
[V:2]B4 A2G2 A2G2 |
[V:3]G4 F2=E2 F2E2 |
[V:4]z12 |
[V:1]c2=B2 _B2A2 B2A2 |
[V:2]F4 >=E4 F2E2 |
[V:3]D4 >C4 D2C2 |
[V:4]z12 |
[V:1]A2_A2 G2F2 G2=A2 |
[V:2]D4 >C4 =E2F2 |
[V:3]B,4 >C4 B,2A,2 |
[V:4]z4 >A,4 G,2F,2 |
[V:1]BGAB cd=ef gabc' |
[V:2]G4 z8 |
[V:3][G,4C,4] z8 |
[V:4]=E,4 z8 |
[V:1]d'2c'2 c'2c'2 c'2c'2 |
[V:2][B4G4] z8 |
[V:3]=E4 z8 |
[V:4]C,4 z8 |
[V:1]d'2c'2 c'2c'2 c'2c'2 |
[V:2]=EFGF AGBA BAGF |
[V:3]CD=ED FEGF GFED |
[V:4]C,4 z8 |
[V:1]d'2c'2 c'2c'2 c'2c'2 |
[V:2]=EFGF AGBA cBdB |
[V:3]CD=ED FEGF AGBG |
[V:4]C,4 z8 |
[V:1]d'c'd'c' =e2z6 |
[V:2]G2z8 z2 |
[V:3]=E2z8 z2 |
[V:4]C,4 z8 |
[V:1]a8 c'2f2 |
[V:2]A,CFC A,CA,C A,CFC |
[V:3]z12 |
[V:4]F,,4 F,4 z4 |
[V:1]=e8 b2g2 |
[V:2]B,2z2 G,2z2 =E2z2 |
[V:3]B,C=EC B,CB,C B,CEC |
[V:4]C,,4 C,4 z4 |
[V:1]f4 a4 gf=ed |
[V:2]A,CFC A,CA,C A,CFC |
[V:3]F2z2 C2z6 |
[V:4]F,,4 F,4 z4 |
[V:1]c4 z8 |
[V:2]B,2z2 =E2z2 G2z2 |
[V:3]B,C=EC B,CB,C B,CEC |
[V:4]=E,4 C4 z4 |
[V:1]_a8 c'2f2 |
[V:2]_A,CFC A,CA,C A,CFC |
[V:3]F2z2 C2z2 F,2z2 |
[V:4]F,,4 F,4 z4 |
[V:1]=e8 b2g2 |
[V:2]B,2z2 G,2z2 =E2z2 |
[V:3]B,C=EC B,CB,C B,CEC |
[V:4]C,,4 C,4 z4 |
[V:1]_a8- a2_g2 |
[V:2]_A,CFC A,CFC A,CFE |
[V:3]F4 z8 |
[V:4]F,,8 _A,,2C,,2 |
[V:1]f8 e4 |
[V:2]_D4 z8 |
[V:3]_A,_DFD A,DFD =A,CEC |
[V:4]_D,,8 F,2A,,2 |
[V:1]_d4 c4 =B4 |
[V:2]F12 |
[V:3]B,4 _A,6 G,F, |
[V:4]B,,4 C,4 _D,4 |
[V:1]c4 z2c'2 d'2c'2 |
[V:2]=E4 z8 |
[V:3]G,4 z8 |
[V:4]C,,C,C,,C, C,,C,C,,C, C,,C,C,,C, |
[V:1]=b2z4 _b2 c'2b2 |
[V:2]z2f2 g2f2 =e2z2 |
[V:3]z2D2 =E2D2 C2z2 |
[V:4]C,,C,C,,C, C,,C,C,,C, C,,C,C,,C, |
[V:1]a2z4 a2 b2a2 |
[V:2]z2=e2 f2e2 d2z2 |
[V:3]z2C2 D2C2 B,2z2 |
[V:4]C,,C,C,,C, C,,C,C,,C, C,,C,C,,C, |
[V:1]g2z4 g2 a2g2 |
[V:2]z2d2 =e2d2 c2z2 |
[V:3]z2B,2 C2B,2 A,2z2 |
[V:4]C,,C,C,,C, C,,C,C,,C, C,,C,C,,C, |
[V:1]f2z4 f2 g2f2 |
[V:2]z2c2 d2c2 B2z2 |
[V:3]z2A,2 B,2A,2 G,2z2 |
[V:4]C,,C,C,,C, C,,C,C,,C, C,,C,C,,C, |
[V:1]=e2d2 c2B2 A2G2 |
[V:2]z2F2 =E2D2 C2B,2 |
[V:3]z2A2 G2F2 =E2C2 |
[V:4]C,,C,C,,C, C,,C,C,,C, C,,C,C,,C, |
[V:1]F4 z8 |
[V:2]A,CFA cBAG F=EDC |
[V:3]F4 z8 |
[V:4]F,,4 z8 |
[V:1]z12 |
[V:2]B,C=EG BAGF EDCB, |
[V:3]=E4 z8 |
[V:4]C,4 z8 |
[V:1]F12 |
[V:2]A,CFA cBAG F=EDC |
[V:3]F,A,CF AGF=E DCB,A, |
[V:4]F,4 z8 |
[V:1]=E12 |
[V:2]B,C=EG BAGF EDCB, |
[V:3]G,B,C=E GFED CB,A,G, |
[V:4]C,4 z8 |
[V:1]F4 c4 f4- |
[V:2]A,4 z4 A4 |
[V:3]F,4 z8 |
[V:4]F,,A,,C,F, A,G,F,=E, D,C,B,,A,, |
[V:1]f4 =e4 g4- |
[V:2]B4 G4 B4 |
[V:3]G,B,DG BAGF =EDCB, |
[V:4]G,,4 z8 |
[V:1]g4 f4 a4- |
[V:2]c12 |
[V:3]A,4 z8 |
[V:4]A,,C,=E,F, A,B,A,G, F,E,D,C, |
[V:1]a4 g4 b4- |
[V:2]d4 B4 d4 |
[V:3]B,DGB dcBA GF=ED |
[V:4]B,,4 z8 |
[V:1]baga bagf =edcB |
[V:2]=e12 |
[V:3]CD=EF G8 |
[V:4]C,12 |
[V:1]ABcB AGF=E DCB,A, |
[V:2]f4 z8 |
[V:3]A4 z8 |
[V:4]F,,4 z8 |
[V:1]G,2B,2 D2G2 B2d2 |
[V:2]G12 |
[V:3]D12 |
[V:4]B,,12 |
[V:1]=B,2D2 F2_A2 =B2d2 |
[V:2]_A12 |
[V:3][F12D12] |
[V:4]=B,,12 |
[V:1]f2^ga =ef=Bc ^GA=EF |
[V:2]A4 z8 |
[V:3]F4 z8 |
[V:4]C,4 z8 |
[V:1]C4 c'6 b2 |
[V:2][B4G4] g6 fg |
[V:3]=E4 E6 DE |
[V:4]C,4 z4 C,4 |
[V:1]a2c'4 <g4 fg |
[V:2]f2z4 <=e4 de |
[V:3]F2z4 <B4 AB |
[V:4]F,,4 z2=B,,C, B,,C,C,,C, |
[V:1]f2a4 <B4 AB |
[V:2]f2z4 <G4 FG |
[V:3]A2z2 =E8 |
[V:4]F,,4 z2=B,,C, B,,C,C,,C, |
[V:1]A2c4 <=E4 DE |
[V:2]F2z4 <B,4 A,B, |
[V:3]F2z4 <G,4 F,G, |
[V:4]F,,4 z2=B,,C, B,,C,C,,C, |
[V:1]F4 z2A2 B2A2 |
[V:2]A,2z4 C2 D2C2 |
[V:3]A,4 z6 C,2 |
[V:4]F,,2F,,2 F,,2F,,2 F,,2F,,2 |
[V:1]A2G2 F2c2 d2c2 |
[V:2]C2B,2 A,2A2 B2A2 |
[V:3]D,2=E,2 F,2z4 C2 |
[V:4]F,,2F,,2 F,,2F,,2 F,,2F,,2 |
[V:1]c2B2 A2c2 e2d2 |
[V:2]A2G2 F2A2 c2B2 |
[V:3]D2=E2 F2z6 |
[V:4]F,,4 z8 |
[V:1]f2e2 g2z4 zf |
[V:2]d2c2 e2z4 zd |
[V:3]z12 |
[V:4]z12 |
[V:1]e2z4 d2 e2f2 |
[V:2]c2z4 B2 B2B2 |
[V:3]z4 >_A4 G2D2 |
[V:4]z6 z6 |
[V:1]_a2g2 f2z4 f2 |
[V:2]B2e2 d2z4 d2 |
[V:3]E2A,2 B,2z6 |
[V:4]z4 >B,,4 C,2B,,2 |
[V:1]g2_a2 b2e2 f2e2 |
[V:2]e2f2 g2B2 c2B2 |
[V:3]z4 >G4 _A2G2 |
[V:4]B,,2_A,,2 G,,2z6 |
[V:1]e2d2 c2c2 d2c2 |
[V:2]_A4 G2G2 A2G2 |
[V:3]F4 E2E2 F2E2 |
[V:4]z12 |
[V:1]c2=B2 _a2z4 B2 |
[V:2]F4 z6 D2 |
[V:3]D4 z8 |
[V:4]z4 >G,,4 _A,,2G,,2 |
[V:1]c2d2 e2z4 =e2 |
[V:2]E2F2 G2z4 G2 |
[V:3]z4 >C4 _D2C2 |
[V:4]G,,2F,,2 E,,2z6 |
[V:1]f2g2 _a2a2 b2a2 |
[V:2]_A2B2 c2f2 g2f2 |
[V:3]C2B,2 _A,2C2 _D2C2 |
[V:4]z4 >F,4 =E,2F,2 |
[V:1]_a2g2 f2f2 _d2=B2 |
[V:2]=e4 f2z2 F4 |
[V:3]_D4 C2z2 D4 |
[V:4]B,4 _A,2z6 |
[V:1]=B4 c2z6 |
[V:2]F4 =E2z6 |
[V:3]C4 C,2z6 |
[V:4]z12 |
[V:1]z12 |
[V:2]z12 |
[V:3]z12 |
[V:4]_A,,2A,,G,, A,,2A,,G,, A,,2A,,G,, |
[V:1]z12 |
[V:2]C2C_A, C2CA, C2CA, |
[V:3]_A,2A,E, A,2A,E, A,2A,E, |
[V:4]_A,,2z2 A,,2z2 A,,2z2 |
[V:1]e2ed e2ed e2ed |
[V:2]C2C_A, C2CA, C2CA, |
[V:3]_A,2A,E, A,2A,E, A,2A,E, |
[V:4]_A,,2z2 A,,2z2 A,,2z2 |
[V:1]edef edef e_dcB |
[V:2]_D2DB, D2DB, D2DB, |
[V:3]B,2B,E, B,2B,E, B,2B,E, |
[V:4]G,,2z2 G,,2z2 G,,2z2 |
[V:1]_A2AG A2AG A2Ac |
[V:2]C2C_A, C2CA, C2CA, |
[V:3]_A,2A,E, A,2A,E, A,2A,E, |
[V:4]_A,,2z2 A,,2z2 A,,2z2 |
[V:1]B2B4 <B4 c_d |
[V:2]B,2B,G, B,2B,G, B,2B,G, |
[V:3]G,2G,E, G,2G,E, G,2G,E, |
[V:4]E,2z2 E,2z2 E,2z2 |
[V:1]e2ed e2ed e2ed |
[V:2]C2C_A, C2CA, C2CA, |
[V:3]_A,2A,E, A,2A,E, A,2A,E, |
[V:4]_A,,2z2 A,,2z2 A,,2z2 |
[V:1]edef edef e_dcB |
[V:2]C2C_A, C2CA, C2CA, |
[V:3]_A,2A,E, A,2A,E, A,2A,E, |
[V:4]_G,,12 |
[V:1]A4 c'4 e4 |
[V:2]EDEF _GFE_D CDEC |
[V:3]C=B,C_D EDC_B, A,B,CA, |
[V:4]F,,12 |
[V:1]_d8 f2B2 |
[V:2]B,_DFD FDFD B,DFD |
[V:3]B,4 z4 _D4 |
[V:4]B,,4 B,4 z4 |
[V:1]A8 e2_d2 |
[V:2]E4 z4 A,4 |
[V:3]CEFE FEFE CEFE |
[V:4]F,,4 F,4 z4 |
[V:1]_d4 >f4 edcB |
[V:2]B,_DFD FDFD B,DFD |
[V:3]_D4 z8 |
[V:4]B,,4 B,4 z4 |
[V:1]B2A2 A4 z4 |
[V:2]E4 z4 F2A,2 |
[V:3]A,CFC FCFC A,CFC |
[V:4]F,,4 F,4 z4 |
[V:1]_d8 f2B2 |
[V:2]B,_DFD FDFD B,DFD |
[V:3]_D4 z8 |
[V:4]B,,4 B,4 z4 |
[V:1]A8 e2_d2 |
[V:2]E4 z4 A,4 |
[V:3]CEFE FEFE CEFE |
[V:4]F,,4 F,4 z4 |
[V:1]_d4 >f4 edcB |
[V:2]B,_DFD FDFD B,DFD |
[V:3]_D4 z8 |
[V:4]B,,4 B,4 z4 |
[V:1]_A2G4 <G4 B2 |
[V:2]B,4 z4 E4 |
[V:3]B,_DED EDED B,DED |
[V:4]E,,4 E,4 z4 |
[V:1]B2_A4 <A4 c2 |
[V:2]CE_AE CECE CEAE |
[V:3]C4 z4 _A,4 |
[V:4]E,,4 E,4 z4 |
[V:1]c2B4 <B4 _d2 |
[V:2]E4 z4 E4 |
[V:3]G,B,EB, G,B,G,B, G,B,EB, |
[V:4]E,,4 E,4 z4 |
[V:1]_c12 |
[V:2]E12- |
[V:3]_C12 |
[V:4]_A,,2A,,G,, A,,2A,,G,, A,,2A,,G,, |
[V:1]c12 |
[V:2]E12 |
[V:3]C12 |
[V:4]_A,,2A,,G,, A,,2A,,G,, A,,2A,,G,, |
[V:1]c2c=B c2cB c2cB |
[V:2]=E12 |
[V:3]=E,12 |
[V:4]_A,,2A,,G,, A,,2A,,G,, A,,2A,,G,, |
[V:1]c12 |
[V:2]F2F=E F2FE F2F2 |
[V:3]F,2F,=E, F,2F,E, F,2F,2 |
[V:4]_A,,2A,,G,, A,,2A,,G,, A,,2A,,G,, |
[V:1]c2c=B c2cB c2cd |
[V:2]^F12 |
[V:3]^F,4 E4 C4 |
[V:4]_A,,2A,,G,, A,,2A,,G,, A,,2A,,2 |
[V:1]=B2g^f g2d^c d2BA |
[V:2]G2g^f g2d^c d2=BA |
[V:3]D2G^F G2d^c d2=BA |
[V:4]G,,2G^F G2D^C D2=B,A, |
[V:1]=B2G^F G2=B,C DCB,A, |
[V:2]=B2G^F G2=B,C DCB,A, |
[V:3]=B2G^F G2=B,C DCB,A, |
[V:4]=B,2G,^F, G,2=B,,C, D,C,B,,A,, |
[V:1]G,2G^F G2z6 |
[V:2]G,2G^F G2z6 |
[V:3]G,2G^F G2z6 |
[V:4]G,,2G,^F, G,2G,,_A,, G,,F,,E,,D,, |
[V:1][G,4E4] z8 |
[V:2]CEGc egfe dc=Bc |
[V:3][E4G,4] z8 |
[V:4]C,,4 z8 |
[V:1]F4 z8 |
[V:2]=Bdf_a gfed cBcd |
[V:3]_A,4 z8 |
[V:4]D,4 z8 |
[V:1]CEGc egfe dc=Bc |
[V:2]e4 z8 |
[V:3]G4 z8 |
[V:4]C,4 z8 |
[V:1]=Bdf_a gfed cBcd |
[V:2]d4 z8 |
[V:3]_A,4 z8 |
[V:4]F,4 z8 |
[V:1]e4 z8 |
[V:2]e12 |
[V:3]C,E,G,C EGFE DC=B,C |
[V:4]E,4 z8 |
[V:1]z12 |
[V:2]=e12 |
[V:3]B,12 |
[V:4]C,,=E,,G,,C, =E,F,G,E, C,B,,_A,,G,, |
[V:1]F_Acf _ac'ba gf=ef |
[V:2]f4 z8 |
[V:3]_A,4 z8 |
[V:4]F,,4 z8 |
[V:1]=egb_d' c'b_ag fefg |
[V:2]_d4 =E4 FG_AB |
[V:3]B4 z8 |
[V:4]G,4 z8 |
[V:1]_a12 |
[V:2]c12- |
[V:3]F,_A,CF _AcBA GF=EF |
[V:4]F,12 |
[V:1]a12 |
[V:2]c4 F4 A,B,C^C |
[V:3]E8 cBAG |
[V:4]F,,A,,C,F, A,B,CB, A,G,F,E, |
[V:1]a12 |
[V:2]D^FA^c d^fag fed=c |
[V:3]^F12 |
[V:4]D,12- |
[V:1]bGBd ^fgbd' c'bag |
[V:2]B8 G4 |
[V:3]G12 |
[V:4]D,12 |
[V:1]d'4 z2d2 e2d2 |
[V:2]^F4 z2B2 c2B2 |
[V:3]D,DD,D D,DD,D D,DD,D |
[V:4]D,4 z6 G2 |
[V:1]c4 z2c2 d2c2 |
[V:2]A4 z2A2 B2A2 |
[V:3]D,DD,D D,DD,D D,DD,D |
[V:4]A2G2 ^F2z4 F2 |
[V:1]B2g2 e2c2 B2A2 |
[V:2]B2d2 c2A2 G2^F2 |
[V:3]D,2G2 G2E2 D2C2 |
[V:4]G2=B,2 C2E2 D2D,2 |
[V:1]G4 z2d2 e2d2 |
[V:2]G4 z2B2 c2B2 |
[V:3]B,4 z8 |
[V:4]G,,G,G,,G, G,,G,G,,G, G,,G,G,,G, |
[V:1]d2c2 B2B2 c2B2 |
[V:2]B2A2 G2G2 A2G2 |
[V:3]z4 >D4 E2D2 |
[V:4]G,,G,G,,G, G,,2G,2 ^F,2G,2 |
[V:1]B2A2 G2d2 e2d2 |
[V:2]^F4 G2B2 c2B2 |
[V:3]E4 D2z4 B,2 |
[V:4]C4 B,2z4 G,2 |
[V:1]z2d2 e2d2 z2d2 |
[V:2]z2B2 c2B2 z2B2 |
[V:3]C2B,2 z2B,2 C2B,2 |
[V:4]A,2G,2 z2G,2 A,2G,2 |
[V:1]e2d2 e2d2 e2d2 |
[V:2]c2B2 c2B2 c2B2 |
[V:3]z12 |
[V:4]z12 |
[V:1]e2d2 e2d2 e2d2 |
[V:2]c2B2 c2B2 c2B2 |
[V:3]z4 >F4 F2F2 |
[V:4]z4 >B,,4 A,,2B,,2 |
[V:1]d2c2 B2f2 =e2f2 |
[V:2]A4 B2d2 ^c2d2 |
[V:3]F4 >F4 =E2F2 |
[V:4]E,4 D,2z6 |
[V:1]c=Bcd c2d2 e2f2 |
[V:2]A4 z2B2 B2B2 |
[V:3]C=B,CD C2F2 E2D2 |
[V:4]F,4 z2B,2 G,2D,2 |
[V:1]^f2g2 =f2d'2 a2b2 |
[V:2]B4 >d4 A2B2 |
[V:3]E4 D2z6 |
[V:4]E,4 D,2z6 |
[V:1]^f2g2 c2e2 dcBA |
[V:2]^F2G2 C2G2 =FEDC |
[V:3]z4 >E,4 F,2F,2 |
[V:4]E,4 >C,4 F,2F,,2 |
[V:1]B2F2 D2d2 e2d2 |
[V:2]D4 z2B2 c2B2 |
[V:3]F,4 z2F2 F2F2 |
[V:4]B,,4 z2B,2 A,2B,2 |
[V:1]d2c2 B2f2 =e2f2 |
[V:2]A4 B2d2 ^c2d2 |
[V:3]F4 >F4 =E2F2 |
[V:4]E4 D2z6 |
[V:1]c=Bcd c2c2 d2c2 |
[V:2]A4 z2A2 B2A2 |
[V:3]C=B,CD C2z6 |
[V:4]F,4 z2F2 =E2F2 |
[V:1]e4 >e4 d2d2 |
[V:2]c2c4 A4 G2- |
[V:3]z12 |
[V:4]C=B,CD C2F2 _B,2E2 |
[V:1]c4 >c4 B2B2 |
[V:2]G2G4 F4 =E2 |
[V:3]z12 |
[V:4]A,G,A,B, A,2D2 G,2C2 |
[V:1]A4 >A4 c2B2 |
[V:2]E4 >E4 E2D2 |
[V:3]z12 |
[V:4]F,=E,F,G, F,4 z4 |
[V:1]e4 >d4 f2e2 |
[V:2]c4 >B4 d2c2 |
[V:3]z12 |
[V:4]F,=E,F,G, F,4 z4 |
[V:1]g4 >g4 f2e2 |
[V:2]e4 >e4 d2c2 |
[V:3]z12 |
[V:4]F,=E,F,G, F,2F,2 G,2A,2 |
[V:1]d2d^c d2dc d2dc |
[V:2]B2_A4 A4 A2 |
[V:3]F12- |
[V:4]B,12- |
[V:1]defg _abc'b agfe |
[V:2]_A8 F4 |
[V:3]F12 |
[V:4]B,12 |
[V:1]d2d^c d2dc d2d2 |
[V:2]G12 |
[V:3]F2F=E F2FE F2F2 |
[V:4]=B,12 |
[V:1]efgf edcd edcB |
[V:2]G4 z8 |
[V:3]E4 z8 |
[V:4]C4 z8 |
[V:1]ABcB AGF=E F_EDC |
[V:2][A4E4] z8 |
[V:3]C4 z8 |
[V:4]F,4 z8 |
[V:1]DB,CD EFGA Bcde |
[V:2][B4D4] z8 |
[V:3]D4 z8 |
[V:4]B,,4 z8 |
[V:1]f=ebg fegf edcB |
[V:2]B4 z8 |
[V:3]=E4 z8 |
[V:4]G,,4 z8 |
[V:1]AcBd c=edf egfa |
[V:2]A4 z8 |
[V:3]F4 z8 |
[V:4]F,,4 z8 |
[V:1]F4 z2f2 g2f2 |
[V:2]z4 >c4 d2c2 |
[V:3]z4 >A4 B2A2 |
[V:4]F,,2F,,=E,, F,,2F,,2 F,,2F,,2 |
[V:1]f2e2 d2d2 e2d2 |
[V:2]B4 A2A2 B2A2 |
[V:3]G4 F2F2 G2F2 |
[V:4]F,,2F,,2 F,,2F,,2 F,,2F,,2 |
[V:1]d2c2 B2B2 c2B2 |
[V:2]G4 F2F2 G2F2 |
[V:3]E4 D2D2 E2D2 |
[V:4]F,,2F,,2 F,,2F,,2 F,,2F,,2 |
[V:1]BAcB ABcd cdef |
[V:2]E8- E2ED |
[V:3]C8- C2CB, |
[V:4]F,,12- |
[V:1]g2f2 f2f2 f2f2 |
[V:2]C4 z8 |
[V:3]A,4 z8 |
[V:4]F,,4 z8 |
[V:1]g2f2 f2f2 f2f2 |
[V:2]ABcB dced edcB |
[V:3]FGAG BAcB cBAG |
[V:4]F,,4 z8 |
[V:1]g2f2 f2f2 f2f2 |
[V:2]ABcB dced fedc |
[V:3]FGAG BAcB dcBA |
[V:4]F,,4 z8 |
[V:1]f8 b4- |
[V:2]d4 z4 d4 |
[V:3]B4 z8 |
[V:4]B,,D,F,B, DCB,A, G,F,E,D, |
[V:1]b4 a4 c'4- |
[V:2]e4 c4 e4 |
[V:3]C,E,G,C EDCB, A,G,F,E, |
[V:4]C,4 z8 |
[V:1]c'4 b4 d'4- |
[V:2]f12 |
[V:3]D,4 z8 |
[V:4]D,F,A,B, DCB,A, G,F,E,D, |
[V:1]d'4 c'4 e'4- |
[V:2]g4 e4 g4 |
[V:3]E,G,CE GFED CB,A,G, |
[V:4]E,4 z8 |
[V:1]e'c'ac' e'c'ac' e'c'ae |
[V:2]A12 |
[V:3]F,4 C8 |
[V:4]F,12 |
[V:1]defe dcBA GFED |
[V:2]B4 z8 |
[V:3]D4 z8 |
[V:4]B,4 z8 |
[V:1]C2E2 G2c2 e2g2 |
[V:2]C12 |
[V:3]G,12 |
[V:4]E,12 |
[V:1]=E2G2 B2_d2 =e2g2 |
[V:2]_D12 |
[V:3][G,12B,12] |
[V:4]=E,12 |
[V:1]b2^c'd' ab=ef ^cdAB |
[V:2]D4 z8 |
[V:3]B,4 z8 |
[V:4]F,4 z8 |
[V:1]F4 c'6 bc' |
[V:2][E4C4] a6 ga |
[V:3]A,4 e6 de |
[V:4]F,4 z4 F,4 |
[V:1]b2d'4 <e4 de |
[V:2]b2z4 <c4 Bc |
[V:3]d2z2 A8 |
[V:4]B,,4 z2=E,F, E,F,F,,F, |
[V:1]d2f4 <A4 GA |
[V:2]B2z4 <E4 DE |
[V:3]B2z4 <C4 B,C |
[V:4]B,,4 z2=E,F, E,F,F,,F, |
[V:1]B2d4 <A,4 G,A, |
[V:2]D2z4 <C4 B,C |
[V:3]B,2z4 <E,4 D,E, |
[V:4]B,,4 z2=E,,F,, E,,F,,E,,F,, |
[V:1]B,4 z2d2 e2d2 |
[V:2]B,4 z2F2 G2F2 |
[V:3]D,4 z6 F,2 |
[V:4]B,,2B,,2 B,,2B,,2 B,,2B,,2 |
[V:1]d2c2 B2f2 g2f2 |
[V:2]F2E2 D2d2 e2d2 |
[V:3]G,2A,2 B,2z4 F2 |
[V:4]B,,2B,,2 B,,2B,,2 B,,2B,,2 |
[V:1]f2e2 d2f2 g2f2 |
[V:2]d2c2 B2d2 e2d2 |
[V:3]G2A2 B2z6 |
[V:4]B,,2B,,2 B,,2z6 |
[V:1]a12 |
[V:2]c12 |
[V:3]e12 |
[V:4]F,,2F,,=E,, F,,2F,,E,, F,,2F,2 |
[V:1]b2z8 z2 |]
[V:2]d2z8 z2 |]
[V:3]d2z8 z2 |]
[V:4]B,,2z8 z2 |]

